assets/icons/education-filled.svg

<?xml version="1.0" encoding="UTF-8" standalone="no"?>
<svg viewBox="0 0 24 24" height="24" id="svg7384" version="1.1" width="24" sodipodi:docname="education-filled.svg" inkscape:version="1.1.2 (08b2f3d93c, 2022-04-05)"
   xmlns:inkscape="http://www.inkscape.org/namespaces/inkscape"
   xmlns:sodipodi="http://sodipodi.sourceforge.net/DTD/sodipodi-0.dtd"
   xmlns="http://www.w3.org/2000/svg"
   xmlns:svg="http://www.w3.org/2000/svg"
   xmlns:rdf="http://www.w3.org/1999/02/22-rdf-syntax-ns#"
   xmlns:cc="http://creativecommons.org/ns#"
   xmlns:dc="http://purl.org/dc/elements/1.1/">
   <sodipodi:namedview id="namedview21" pagecolor="#ffffff" bordercolor="#666666" borderopacity="1.0" inkscape:pageshadow="2" inkscape:pageopacity="0.0" inkscape:pagecheckerboard="0" showgrid="true" inkscape:zoom="45.254834" inkscape:cx="10.927009" inkscape:cy="12.44066" inkscape:window-width="1920" inkscape:window-height="1043" inkscape:window-x="0" inkscape:window-y="0" inkscape:window-maximized="1" inkscape:current-layer="svg7384" inkscape:snap-grids="false">
      <inkscape:grid type="xygrid" id="grid23" />
   </sodipodi:namedview>
   <metadata id="metadata20854">
      <rdf:RDF>
         <cc:Work rdf:about="">
            <dc:format>image/svg+xml</dc:format>
            <dc:type rdf:resource="http://purl.org/dc/dcmitype/StillImage" />
         </cc:Work>
      </rdf:RDF>
   </metadata>
   <defs id="defs7386">
      <linearGradient id="linearGradient5606" inkscape:swatch="solid">
         <stop id="stop5608" offset="0" style="stop-color:#000000;stop-opacity:1;" />
      </linearGradient>
      <linearGradient id="linearGradient4526" inkscape:swatch="solid">
         <stop id="stop4528" offset="0" style="stop-color:#ffffff;stop-opacity:1;" />
      </linearGradient>
      <linearGradient id="linearGradient3600-4" inkscape:swatch="gradient">
         <stop id="stop3602-7" offset="0" style="stop-color:#f4f4f4;stop-opacity:1" />
         <stop id="stop3604-6" offset="1" style="stop-color:#dbdbdb;stop-opacity:1" />
      </linearGradient>
   </defs>
   <path id="path17" style="color:#000000;fill:#808080;-inkscape-stroke:none" d="M 6 12.582031 L 6 17.1875 L 6.1132812 17.326172 C 6.1132812 17.326172 6.6039538 17.912475 7.5664062 18.457031 C 8.5288588 19.001588 9.995713 19.535156 12 19.535156 C 14.004287 19.535156 15.471141 19.001588 16.433594 18.457031 C 17.396046 17.912475 17.886719 17.326172 17.886719 17.326172 L 18 17.1875 L 18 12.582031 L 12 14.582031 L 6 12.582031 z " />
   <path style="color:#000000;fill:#808080;-inkscape-stroke:none" d="m 12,5.453125 -0.203125,0.089844 -10.1777344,4.523437 2.3808594,0.792969 v 4.640625 c 0,0.276142 0.2238576,0.5 0.5,0.5 0.2761424,0 0.5,-0.223858 0.5,-0.5 v -4.306641 l 7,2.333985 10.380859,-3.460938 z" id="path66" />
</svg>

<svg height="24" width="24" xmlns="http://www.w3.org/2000/svg"><path style="color:#000;fill:gray;-inkscape-stroke:none" d="M6 12.582v4.605l.113.14s.491.585 1.453 1.13c.963.545 2.43 1.078 4.434 1.078s3.471-.533 4.434-1.078c.962-.545 1.453-1.13 1.453-1.13l.113-.14v-4.605l-6 2-6-2z"/><path style="color:#000;fill:gray;-inkscape-stroke:none" d="m12 5.453-.203.09-10.178 4.523L4 10.86v4.64a.5.5 0 0 0 1 0v-4.307l7 2.334 10.38-3.46z"/></svg>
